X:1
T:Tell the Sweet Story of Love
T:Tell the Sweet Story of Love
T:Hugh Henry McGranahan
T:Ada J. Blenkhorn, 1911
T:Public Domain Courtesy of the Cyber Hymnal™
C:Hugh Henry McGranahan
Z:Public Domain
Z:Courtesy of the Cyber Hymnal™
%%score 1 ( 2 3 )
L:1/8
Q:1/4=100
M:6/8
K:Bb
V:1 treble 
V:2 bass 
V:3 bass 
V:1
 [DF][CF][DF] [GB][FA][EG] | [EG][DF][^C=E] [DF]3 | [EA]>[EA][EA] [EA][DB][Ec] | [Ec]3 [DB]2 z | %4
w: 1.~If you would res- cue a|soul from its sin,|Tell the sweet sto- ry of|Je- sus;|
w: 2.~If you would com- fort a|sor- row- ing heart,|Tell the sweet sto- ry of|Je- sus;|
w: 3.~If you would kin- dle love’s|beau- ti- ful flame,|Tell the sweet sto- ry of|Je- sus;|
w: 4.~Would you make earth like a|heav- en be- low,|Tell the sweet sto- ry of|Je- sus;|
 [DF][CF][DF] [GB][FA][EG] | [EG][DF][^C=E] [DF]3 | [EA]>[EA][EA] [EA][DB][Ec] | [DB]3- [DB]2 z || %8
w: If for God’s king- dom a|soul you would win,|Tell the sweet sto- ry of|love. *|
w: Joy o- ver- flow- ing His|peace will im- part,|Tell the sweet sto- ry of|love. *|
w: In dark- ened hearts that have|ne’er heard His name,|Tell the sweet sto- ry of|love. *|
w: Lov- ing- ly, gent- ly, wher-|ev- er you go,|Tell the sweet sto- ry of|love. *|
"^Refrain" [Fd]>[Fd][Fd] [Fd][FB][EG] | [DF]3- [DF]2 z | [Ec][Ec][Ec] [Fe][Fd][Fc] | %11
w: |||
w: Tell the sweet sto- ry of|love, *|Je- sus will smile from a-|
w: |||
w: |||
 [Fd]3- [Fd]2 z | [GB]>[GB][GB] [^Fc][GB][EG] | [EG][DF][DF] [DF][B,D][FB] | %14
w: |||
w: bove; *|Tell the sweet sto- ry, the|beau- ti- ful sto- ry, The|
w: |||
w: |||
 [FA]>[FB][Fc] [Fe][Fd][Ec] | [DB]3- [DB]2 z |] %16
w: ||
w: won- der- ful sto- ry of|love. *|
w: ||
w: ||
V:2
 [B,,B,][F,A,]B, [E,B,][E,B,][E,B,] | [B,,B,][B,,B,][B,,B,] [B,,B,]3 | %2
w: ~ ~ ~ ~ ~ ~|~ ~ ~ ~|
 [F,C]>[F,C][F,C] [F,C][F,B,][F,A,] | [F,A,]3 [B,,B,]2 z | [B,,B,][F,A,]B, [E,B,][E,B,][E,B,] | %5
w: ~ ~ ~ ~ ~ ~|~ ~|~ ~ ~ ~ ~ ~|
 [B,,B,][B,,B,][B,,B,] [B,,B,]3 | [F,C]>[F,C][F,C] [F,C][F,B,][F,A,] | [B,,B,]3- [B,,B,]2 z || %8
w: ~ ~ ~ ~|~ ~ ~ ~ ~ ~|~ *|
 B,>B,B, [B,,B,][B,,D][B,,B,] | [B,,B,][D,B,][F,B,] B,2 z | [F,A,][F,A,][F,A,] [F,C][F,B,][F,A,] | %11
w: ~ ~ ~ ~ ~ the|sto- ry of love,|~ ~ ~ ~ He will|
 B,[F,B,][D,B,] [B,,B,]2 z | [E,E]>[E,E][E,E] [E,E][E,E][E,B,] | %13
w: smile from a- bove;||
 [B,,B,][D,B,][F,B,] B,[B,,F,][B,,D] | [F,C]>[F,D][F,E] [F,C][F,B,][F,A,] | %15
w: ||
 [B,,F,B,]3- [B,,F,B,]2 z |] %16
w: |
V:3
 x2 B, x3 | x6 | x6 | x6 | x2 B, x3 | x6 | x6 | x6 || B,>B,B, x3 | x3 B,2 x | x6 | B, x5 | x6 | %13
 x3 B, x2 | x6 | x6 |] %16

